Yosa-Max-Dark/actions/22x22/entry-new.svg

<?xml version="1.0" encoding="UTF-8"?>
<svg id="svg4" version="1.1" viewBox="0 0 22 22" xmlns="http://www.w3.org/2000/svg">
 <defs id="defs8">
  <style id="current-color-scheme" type="text/css">.ColorScheme-Text {
        color:#dfdfdf;
      }</style>
 </defs>
 <path id="rect846" d="m3 11v8h16v-8h-2.019531v5.980469h-11.962891v-5.980469h-2.0175781z" style="fill:#dfdfdf"/>
 <g id="g824" transform="translate(27.432203,6.3389835)">
  <rect id="rect818" x="-17.432203" y="-3.3389835" width="2" height="8" style="fill:#dfdfdf"/>
  <rect id="rect820" transform="rotate(90)" x="-.33898354" y="12.432203" width="2" height="8" style="fill:#dfdfdf"/>
 </g>
</svg>

<?xml version="1.0" encoding="UTF-8" standalone="no"?>
<svg
   xmlns:dc="http://purl.org/dc/elements/1.1/"
   xmlns:cc="http://creativecommons.org/ns#"
   xmlns:rdf="http://www.w3.org/1999/02/22-rdf-syntax-ns#"
   xmlns:svg="http://www.w3.org/2000/svg"
   xmlns="http://www.w3.org/2000/svg"
   id="svg4"
   version="1.1"
   width="22"
   height="22">
  <metadata
     id="metadata10">
    <rdf:RDF>
      <cc:Work
         rdf:about="">
        <dc:format>image/svg+xml</dc:format>
        <dc:type
           rdf:resource="http://purl.org/dc/dcmitype/StillImage" />
        <dc:title></dc:title>
      </cc:Work>
    </rdf:RDF>
  </metadata>
  <defs
     id="defs8">
    <style
       id="current-color-scheme"
       type="text/css">
      .ColorScheme-Text {
        color:#dfdfdf;
      }
      </style>
  </defs>
  <path
     id="rect846"
     d="M 3 11 L 3 19 L 19 19 L 19 11 L 16.980469 11 L 16.980469 16.980469 L 5.0175781 16.980469 L 5.0175781 11 L 3 11 z "
     style="opacity:1;fill:#dfdfdf;fill-opacity:1;stroke:none;stroke-width:0.30000001;stroke-miterlimit:4;stroke-dasharray:none;stroke-opacity:1" />
  <g
     transform="translate(27.432203,6.3389835)"
     id="g824">
    <rect
       style="opacity:1;vector-effect:none;fill:#dfdfdf;fill-opacity:1;stroke:none;stroke-width:0.49000001;stroke-linecap:butt;stroke-linejoin:miter;stroke-miterlimit:4;stroke-dasharray:none;stroke-dashoffset:0;stroke-opacity:1"
       id="rect818"
       width="2"
       height="8"
       x="-17.432203"
       y="-3.3389835" />
    <rect
       y="12.432203"
       x="-0.33898354"
       height="8"
       width="2"
       id="rect820"
       style="opacity:1;vector-effect:none;fill:#dfdfdf;fill-opacity:1;stroke:none;stroke-width:0.49000001;stroke-linecap:butt;stroke-linejoin:miter;stroke-miterlimit:4;stroke-dasharray:none;stroke-dashoffset:0;stroke-opacity:1"
       transform="rotate(90)" />
  </g>
</svg>
